Icons/rename_me_gmail.svg

<svg viewBox="0 0 48 48" xmlns:xlink="http://www.w3.org/1999/xlink">
 <defs>
  <linearGradient id="0">
   <stop stop-opacity="0"/>
   <stop offset="1"/>
  </linearGradient>
  <linearGradient xlink:href="#0" id="1" gradientUnits="userSpaceOnUse" gradientTransform="translate(4e-7,-48)" y1="47" x2="0" y2="1"/>
  <clipPath id="2">
   <g transform="translate(0,-1004.3622)">
    <rect rx="4" y="1005.36" x="1" height="46" width="46" fill="#1890d0"/>
   </g>
  </clipPath>
  <clipPath id="3">
   <g transform="translate(0,-1004.3622)">
    <rect rx="4" y="1005.36" x="1" height="46" width="46" fill="#1890d0"/>
   </g>
  </clipPath>
 </defs>
 <g>
  <g transform="translate(0,-1004.3622)">
   <path d="m 5,1006.3622 c -2.216,0 -4,1.784 -4,4 l 0,37.25 c 0,2.216 1.784,4 4,4 l 38,0 c 2.216,0 4,-1.784 4,-4 l 0,-37.25 c 0,-2.216 -1.784,-4 -4,-4 l -38,0 z m -4,41.5 0,0.5 c 0,2.216 1.784,4 4,4 l 38,0 c 2.216,0 4,-1.784 4,-4 l 0,-0.5 c 0,2.216 -1.784,4 -4,4 l -38,0 c -2.216,0 -4,-1.784 -4,-4 z" opacity="0.02"/>
   <path d="m 1,1047.6122 0,0.25 c 0,2.216 1.784,4 4,4 l 38,0 c 2.216,0 4,-1.784 4,-4 l 0,-0.25 c 0,2.216 -1.784,4 -4,4 l -38,0 c -2.216,0 -4,-1.784 -4,-4 z" opacity="0.05"/>
   <rect width="46" height="46" x="1" y="1005.61" rx="4" opacity="0.1"/>
  </g>
 </g>
 <g>
  <g transform="translate(0,-1004.3622)">
   <rect rx="4" y="1005.36" x="1" height="46" width="46" fill="#d9d9d9"/>
  </g>
 </g>
 <g>
  <rect transform="scale(1,-1)" width="46" height="46" x="1" y="-46.998" rx="4" opacity="0.1" fill="url(#1)"/>
 </g>
 <g>
  <g clip-path="url(#2)">
   <g opacity="0.1">
    <g>
     <path d="M 11.984375 15 L 36.015625 15 C 36.558594 15 37 15.441406 37 15.984375 L 37 32.015625 C 37 32.558594 36.558594 33 36.015625 33 L 11.984375 33 C 11.4375 33 11 32.558594 11 32.015625 L 11 15.984375 C 11 15.441406 11.4375 15 11.984375 15 Z M 11.984375 15 "/>
     <path d="M 37 17 L 24 25.65625 L 35 33 L 36 33 C 36.546875 33 37 32.546875 37 32 Z M 37 17 "/>
     <path d="M 35 15 L 35 33 L 36 33 C 36.546875 33 37 32.546875 37 32 L 37 16 C 37 15.453125 36.546875 15 36 15 Z M 35 15 "/>
     <path d="M 12 15 C 11.457031 15 11 15.453125 11 16 L 11 32 C 11 32.546875 11.457031 33 12 33 L 13 33 L 13 15 Z M 12 15 "/>
     <path d="M 12 15 C 11.457031 15 11 15.453125 11 16 L 11 17 L 24 25.65625 L 24 22.34375 L 13 15 Z M 12 15 "/>
     <path d="M 36 15 C 36.546875 15 37 15.453125 37 16 L 37 17 L 24 25.65625 L 24 22.34375 L 35 15 Z M 36 15 "/>
    </g>
   </g>
  </g>
 </g>
 <g>
  <g clip-path="url(#3)">
   <g transform="translate(0,-1)">
    <g>
     <path d="M 11.984375 15 L 36.015625 15 C 36.558594 15 37 15.441406 37 15.984375 L 37 32.015625 C 37 32.558594 36.558594 33 36.015625 33 L 11.984375 33 C 11.4375 33 11 32.558594 11 32.015625 L 11 15.984375 C 11 15.441406 11.4375 15 11.984375 15 Z M 11.984375 15 " fill="#f9f9f9"/>
     <path d="M 37 17 L 24 25.65625 L 35 33 L 36 33 C 36.546875 33 37 32.546875 37 32 Z M 37 17 " fill="#cccccc"/>
     <path d="M 35 15 L 35 33 L 36 33 C 36.546875 33 37 32.546875 37 32 L 37 16 C 37 15.453125 36.546875 15 36 15 Z M 35 15 " fill="#c02c1f"/>
     <path d="M 12 15 C 11.457031 15 11 15.453125 11 16 L 11 32 C 11 32.546875 11.457031 33 12 33 L 13 33 L 13 15 Z M 12 15 " fill="#ff493c"/>
     <path d="M 12 15 C 11.457031 15 11 15.453125 11 16 L 11 17 L 24 25.65625 L 24 22.34375 L 13 15 Z M 12 15 " fill="#ff493c"/>
     <path d="M 36 15 C 36.546875 15 37 15.453125 37 16 L 37 17 L 24 25.65625 L 24 22.34375 L 35 15 Z M 36 15 " fill="#ff493c"/>
    </g>
   </g>
  </g>
 </g>
 <g>
  <g transform="translate(0,-1004.3622)">
   <path d="m 1,1043.3622 0,4 c 0,2.216 1.784,4 4,4 l 38,0 c 2.216,0 4,-1.784 4,-4 l 0,-4 c 0,2.216 -1.784,4 -4,4 l -38,0 c -2.216,0 -4,-1.784 -4,-4 z" opacity="0.1"/>
  </g>
 </g>
</svg>

<svg viewBox="0 0 48 48"><defs><linearGradient id="linearGradient3764" x1="1" x2="47" gradientUnits="userSpaceOnUse" gradientTransform="translate(-48.000001,0.00221467)"><stop stop-color="#cfcfcf" stop-opacity="1"/><stop offset="1" stop-color="#d9d9d9" stop-opacity="1"/></linearGradient><clipPath id="clipPath-522759788"><g transform="translate(0,-1004.3622)"><rect rx="4" y="1005.36" x="1" height="46" width="46" fill="#1890d0"/></g></clipPath><clipPath id="clipPath-535598481"><g transform="translate(0,-1004.3622)"><rect rx="4" y="1005.36" x="1" height="46" width="46" fill="#1890d0"/></g></clipPath></defs><g><path d="m 1 43 l 0 0.25 c 0 2.216 1.784 4 4 4 l 38 0 c 2.216 0 4 -1.784 4 -4 l 0 -0.25 c 0 2.216 -1.784 4 -4 4 l -38 0 c -2.216 0 -4 -1.784 -4 -4 z m 0 0.5 l 0 0.5 c 0 2.216 1.784 4 4 4 l 38 0 c 2.216 0 4 -1.784 4 -4 l 0 -0.5 c 0 2.216 -1.784 4 -4 4 l -38 0 c -2.216 0 -4 -1.784 -4 -4 z" opacity="0.02"/><path d="m 1 43.25 l 0 0.25 c 0 2.216 1.784 4 4 4 l 38 0 c 2.216 0 4 -1.784 4 -4 l 0 -0.25 c 0 2.216 -1.784 4 -4 4 l -38 0 c -2.216 0 -4 -1.784 -4 -4 z" opacity="0.05"/><path d="m 1 43 l 0 0.25 c 0 2.216 1.784 4 4 4 l 38 0 c 2.216 0 4 -1.784 4 -4 l 0 -0.25 c 0 2.216 -1.784 4 -4 4 l -38 0 c -2.216 0 -4 -1.784 -4 -4 z" opacity="0.1"/></g><g><rect width="46" height="46" x="-47" y="1" rx="4" transform="matrix(0,-1,1,0,0,0)" fill="url(#linearGradient3764)" fill-opacity="1"/></g><g><g clip-path="url(#clipPath-522759788)"><g opacity="0.1"><!-- color: #d9d9d9 --><g><path d="m 11.984 15 l 24.03 0 c 0.543 0 0.984 0.441 0.984 0.984 l 0 16.03 c 0 0.543 -0.441 0.984 -0.984 0.984 l -24.03 0 c -0.547 0 -0.984 -0.441 -0.984 -0.984 l 0 -16.03 c 0 -0.543 0.438 -0.984 0.984 -0.984 m 0 0" fill="#000"/><path d="m 37 17 l -13 8.656 l 11 7.344 l 1 0 c 0.547 0 1 -0.453 1 -1 m 0 -15" fill="#000"/><path d="m 35 15 l 0 18 l 1 0 c 0.547 0 1 -0.453 1 -1 l 0 -16 c 0 -0.547 -0.453 -1 -1 -1 m -1 0" fill="#000"/><path d="m 12 15 c -0.543 0 -1 0.453 -1 1 l 0 16 c 0 0.547 0.457 1 1 1 l 1 0 l 0 -18 m -1 0" fill="#000"/><path d="m 12 15 c -0.543 0 -1 0.453 -1 1 l 0 1 l 13 8.656 l 0 -3.313 l -11 -7.344 m -1 0" fill="#000"/><path d="m 36 15 c 0.547 0 1 0.453 1 1 l 0 1 l -13 8.656 l 0 -3.313 l 11 -7.344 m 1 0" fill="#000"/></g></g></g></g><g><g clip-path="url(#clipPath-535598481)"><g transform="translate(0,-1)"><!-- color: #d9d9d9 --><g><path d="m 11.984 15 l 24.03 0 c 0.543 0 0.984 0.441 0.984 0.984 l 0 16.03 c 0 0.543 -0.441 0.984 -0.984 0.984 l -24.03 0 c -0.547 0 -0.984 -0.441 -0.984 -0.984 l 0 -16.03 c 0 -0.543 0.438 -0.984 0.984 -0.984 m 0 0" fill="#f9f9f9"/><path d="m 37 17 l -13 8.656 l 11 7.344 l 1 0 c 0.547 0 1 -0.453 1 -1 m 0 -15" fill="#ccc"/><path d="m 35 15 l 0 18 l 1 0 c 0.547 0 1 -0.453 1 -1 l 0 -16 c 0 -0.547 -0.453 -1 -1 -1 m -1 0" fill="#c02c1f"/><path d="m 12 15 c -0.543 0 -1 0.453 -1 1 l 0 16 c 0 0.547 0.457 1 1 1 l 1 0 l 0 -18 m -1 0" fill="#ff493c"/><path d="m 12 15 c -0.543 0 -1 0.453 -1 1 l 0 1 l 13 8.656 l 0 -3.313 l -11 -7.344 m -1 0" fill="#ff493c"/><path d="m 36 15 c 0.547 0 1 0.453 1 1 l 0 1 l -13 8.656 l 0 -3.313 l 11 -7.344 m 1 0" fill="#ff493c"/></g></g></g></g><g><g transform="translate(0,-1004.3622)"><path d="m 1 1043.36 0 4 c 0 2.216 1.784 4 4 4 l 38 0 c 2.216 0 4 -1.784 4 -4 l 0 -4 c 0 2.216 -1.784 4 -4 4 l -38 0 c -2.216 0 -4 -1.784 -4 -4 z" opacity="0.1"/></g></g></svg>
